X: 12
T: Porthole Of The Kelp
C: Bobby Casey
Z: ceili
S: https://thesession.org/tunes/263#setting49654
R: reel
M: 4/4
L: 1/8
K: Ddor
|:"Dm"F2DE F/F/F DE|FEFG "C"ECCE|"Dm"F/F/F DE FGAG|"F"FDEC "Dm"A,DDE|
"Dm"F/F/F DE FGAB|"F"cAGF "C"EDCE|"Dm"DEFG "F"AddA|1 "C"cAGE "Dm"EDDE:|2 "C"cAGE "Dm"EDDA||
|:"Dm"d2Ad dcAG|"F"FEFG "C"ECCE|"Dm"d/d/d Ad dcAG|ABcA d3e|
"Dm"fdec dcAB|"F"cAGF "C"EDCE|"Dm"DEFG A/A/A dA|1 "C"cAGE "Dm"EDDA:|2 "C"cAGE "Dm"EDD2||

